src/main/resources/icons/AllIcons/objectBrowser/flattenModules_dark.svg

<svg xmlns="http://www.w3.org/2000/svg" width="16" height="16" viewBox="0 0 16 16"><rect id="frame" width="16" height="16" fill="none"/><g fill="none" fill-rule="evenodd"><path fill="#AFB1B3" d="M2 3h5v1H2z"/><path fill="#AFB1B3" d="M3 11h5v1H3z"/><path fill="#AFB1B3" d="M2 1h1v14H2z"/><path fill="#AFB1B3" d="M11.5 6H10V4h3v2H6V2h7v4h-1.5z"/><path fill="#AFB1B3" d="M6 1h3.001L10 2H6z"/><path fill="#3592C4" d="M11 5h3v3h-3z"/><path fill="#AFB1B3" d="M11.5 14H10v-2h3v2H6v-4h7v4h-1.5z"/><path fill="#AFB1B3" d="M6 9h3.001L10 10H6z"/><path fill="#3592C4" d="M11 13h3v3h-3z"/></g></svg>

<!-- Copyright 2000-2021 JetBrains s.r.o. Use of this source code is governed by the Apache 2.0 license that can be found in the LICENSE file. -->
<svg xmlns="http://www.w3.org/2000/svg" width="16" height="16" viewBox="0 0 16 16">
  <g fill="none" fill-rule="evenodd">
    <rect width="5" height="1" x="2" y="3" fill="#AFB1B3"/>
    <rect width="5" height="1" x="3" y="11" fill="#AFB1B3"/>
    <rect width="1" height="14" x="2" y="1" fill="#AFB1B3"/>
    <path fill="#AFB1B3" d="M11.5,6 L10,6 L10,4 L13,4 L13,6 L11.5,6 L6,6 L6,2 L13,2 L13,6 L11.5,6 Z"/>
    <polygon fill="#AFB1B3" points="6 1 9.001 1 10 2 6 2"/>
    <rect width="3" height="3" x="11" y="5" fill="#3592C4"/>
    <path fill="#AFB1B3" d="M11.5,14 L10,14 L10,12 L13,12 L13,14 L11.5,14 L6,14 L6,10 L13,10 L13,14 L11.5,14 Z"/>
    <polygon fill="#AFB1B3" points="6 9 9.001 9 10 10 6 10"/>
    <rect width="3" height="3" x="11" y="13" fill="#3592C4"/>
  </g>
</svg>
